public/svg/dress4.svg

<svg width="132" height="333" viewBox="0 0 132 333" fill="none" xmlns="http://www.w3.org/2000/svg">
<path fill-rule="evenodd" clip-rule="evenodd" d="M42.4128 331.08C41.0072 330.123 38.6609 324.107 39.6431 322.477C40.7901 320.574 45.8918 319.413 48.6954 319.176C47.5171 324.318 46.1587 328.53 42.4128 331.08ZM80.3942 317.144L80.4797 317.23C80.474 317.225 80.3659 317.172 80.3942 317.144ZM65.2589 315.692C66.8003 315.692 67.6796 315.26 69.0938 314.945C73.3485 313.999 72.6634 314.649 78.2172 316.454L79.9153 317.05C79.9582 317.069 80.0485 317.105 80.1086 317.144C77.8907 317.144 74.8884 316.611 72.8912 316.352C70.3697 316.025 67.9516 315.982 65.2589 315.982V315.692ZM51.2657 316.853C51.2657 314.807 51.9331 312.123 52.2383 310.001C52.6327 307.262 51.3283 307.321 59.5856 310.137C60.6669 310.505 61.4431 310.77 62.5809 311.156C64.0968 311.67 67.293 312.961 68.6856 313.079C67.4378 314.81 52.646 316.18 51.2657 316.853ZM49.2664 316.853C45.8982 317.138 44.9753 317.434 40.9848 317.434C37.927 317.434 41.8088 304.999 41.8417 303.498C43.1027 303.796 45.0672 304.752 46.3701 305.281C47.3483 305.679 49.9022 306.891 50.9799 306.982C50.7915 307.381 49.2664 316.018 49.2664 316.853ZM1.57543 294.497C1.57543 291.634 6.17744 291.884 8.14356 291.884C11.3632 291.884 24.3409 296.259 27.2772 297.691L24.8311 304.205C22.4789 310.202 20.2143 313.713 17.3802 318.985C16.7819 320.098 16.1305 320.874 15.8541 322.079L7.87099 309.001C5.9631 305.641 1.57543 297.881 1.57543 294.497ZM41.2706 300.885C39.9715 300.775 39.531 300.377 38.4978 299.929C37.4815 299.489 36.6017 299.223 35.6001 298.81C33.8265 298.081 31.5734 297.371 29.8475 296.529L39.7995 268.904C44.5719 255.868 48.821 245.194 53.2283 231.747L56.4059 222.203C56.3741 223.654 55.7952 225.652 55.5523 227.142C55.2756 228.837 54.9302 230.115 54.6142 231.995C54.0785 235.183 53.2426 238.606 52.6964 241.949L49.0076 261.716C47.7247 268.293 46.6233 275.076 45.339 281.504L41.2706 300.885ZM56.4059 221.622C56.4059 220.88 56.8581 221.576 56.5758 221.622C56.5723 221.623 56.4059 222.433 56.4059 221.622ZM96.6722 208.557C95.6082 203.914 97.5288 200.397 97.5288 196.944H97.8143C97.8143 199.315 97.6922 201.117 97.5458 203.058C97.4341 204.537 97.687 207.37 96.6722 208.557ZM108.095 187.072L110.9 203.673L112.649 221.638C112.913 224.892 112.899 232.294 113.4 235.681L114.61 249.259C116.366 263.601 119.754 276.456 122.449 290.647C123.837 297.962 125.263 308.171 127.549 315.075C127.929 316.222 128.281 317.524 128.774 318.766C129.214 319.872 129.984 321.141 130.084 322.37C123.577 322.37 120.457 321.666 115.234 321.499L100.903 320.1C96.2567 319.527 84.3394 316.16 79.0007 314.496C77.5838 314.054 77.0066 313.686 75.8251 313.66C76.4431 312.802 76.6916 313.061 79.2725 312.519C80.6236 312.235 82.1206 311.92 83.3277 311.706C93.9435 309.824 106.366 310.35 115.347 316.452C116.827 317.458 116.384 317.288 118.09 317.144C118.812 314.079 117.734 315.163 117.524 312.494L117.233 290.723C117.234 287.951 117.155 284.762 116.784 282.18C116.583 280.785 116.569 279.449 116.393 278.222L114.866 266.419C113.346 255.912 111.873 245.671 110.959 234.97C110.845 233.639 110.767 232.442 110.584 230.996C109.851 225.217 109.763 216.17 109.031 210.509L107.572 194.281C107.133 190.089 106.549 188.881 108.095 187.072ZM103.526 191.717C103.526 187.264 104.097 183.687 104.097 179.233H104.383C104.383 185.046 106.467 188.277 103.526 191.717ZM64.6875 187.943C64.6875 189.425 64.6919 188.425 64.402 188.814C64.402 187.279 64.4042 188.381 64.6875 187.943ZM51.2657 304.949L42.4128 301.465C43.361 299.456 48.1787 273.025 48.5306 271.103L54.1998 240.284C54.5776 238.035 55.0998 235.2 55.6604 232.768L58.6667 217.533C60.8203 206.56 63.1364 199.211 66.3649 188.487L68.6856 181.556C68.6856 183.081 68.52 184.03 68.3486 185.568C67.3019 194.965 66.7373 203.61 65.422 213.369C64.0067 223.869 62.925 233.93 61.18 244.477C60.3794 249.316 59.4222 254.267 58.609 259.283C58.2221 261.67 57.8053 264.075 57.3882 266.752C56.2565 274.019 54.5568 282.492 53.5983 289.611L51.8214 300.869C51.647 302.185 51.2657 303.546 51.2657 304.949ZM64.6875 187.943L68.1145 169.942C68.8452 171.011 69.4257 173.247 69.159 174.466C68.9779 175.296 68.6411 175.809 68.3639 176.583L64.6875 187.943ZM100.67 173.136C100.568 172.586 101.03 172.104 100.851 172.952C100.847 172.972 100.859 174.149 100.67 173.136ZM69.5424 162.393H69.828V167.91C68.1722 166.676 69.5424 164.542 69.5424 162.393ZM103.526 168.49C101.467 168.537 101.241 169.589 101.241 171.684H100.956C100.956 159.691 107.238 126.344 107.238 122.327H107.524C107.524 136.157 105.337 144.343 104.404 156.609C104.1 160.605 103.526 164.385 103.526 168.49ZM58.9763 108.971C58.9512 110.103 58.3701 111.819 58.0606 112.976C57.7481 114.144 57.324 115.549 56.977 116.81C56.6241 118.094 56.3361 119.292 55.9359 120.687C55.7027 121.501 55.5922 121.857 55.3829 122.738C55.3128 123.034 55.2495 123.368 55.1524 123.665L54.6924 124.649C54.0539 121.863 55.2899 118.716 56.084 116.483L58.9763 108.971ZM58.9763 108.971C58.9763 107.489 58.972 108.489 59.2618 108.1C59.2618 109.635 59.2596 108.533 58.9763 108.971ZM107.524 109.261L104.013 132.984C102.759 140.723 101.78 148.787 100.654 156.861L98.686 175.183C98.4342 178.315 98.5916 185.822 98.0831 188.216C97.4813 191.051 91.6994 210.88 96.6722 210.88C99.7839 210.88 99.0654 206.348 99.6491 202.293C100.737 194.739 99.2024 190.313 101.13 181.733C101.747 178.983 102.669 175.339 102.669 172.265L101.211 198.383C101.074 199.908 100.359 200.536 102.098 201.008C103.145 200.229 103.346 197.907 103.773 196.614L104.859 193.363C105.13 192.748 105.193 192.686 105.525 192.298C105.543 193.123 105.757 194.907 105.892 195.99L108.458 230.254C108.743 232.426 109.095 235.523 109.237 237.881C110.166 253.251 114.827 275.386 115.244 289.552L115.231 310.179C115.22 312.013 115.52 312.772 115.52 314.24C111.08 311.852 106.768 310.429 100.76 309.504C92.6388 308.254 82.7742 309.924 74.9644 311.915C72.6672 312.501 73.2242 312.719 69.5446 311.335L52.9789 305.82C52.9789 303.958 54.8992 292.598 55.3112 289.61C56.6801 279.676 58.8479 267.374 60.5264 257.168L64.3146 232.857C64.7237 229.995 64.9507 227.575 65.3762 224.645C66.1956 219.004 66.6512 213.609 67.4229 207.854L70.6978 176.053C71.219 174.332 71.5415 175.472 71.5415 174.007C71.5415 172.49 70.9925 172.389 70.9906 171.113C70.9858 167.886 72.5019 159.346 70.6849 156.587C69.0221 156.727 69.0984 157.68 68.8013 159.317C68.5262 160.832 68.1145 161.733 68.1145 163.264H67.5434C67.2762 162.098 66.895 161.419 66.5054 160.255L61.7114 144.515C61.0885 142.284 60.3767 140.386 59.6552 138.186C59.2772 137.034 56.6418 129.986 56.922 129.23L77.9389 96.3129L84.9242 86.8654C86.1877 85.2562 87.3708 83.8401 88.6386 82.2218L92.3886 77.6147C93.3185 78.2478 94.0996 79.8376 94.8419 80.9269L99.6405 87.9523C101.019 90.0624 106.065 97.0603 106.764 98.7109C107.357 100.11 107.643 101.781 107.362 103.574C107.025 105.723 107.524 107.176 107.524 109.261ZM101.527 87.4861L93.5307 75.8726C94.1843 75.1082 95.5454 73.7066 95.8153 72.6789L101.527 87.4861ZM90.6751 64.5494C90.5737 63.3104 88.9616 59.1582 88.9616 58.4524C88.9616 58.0252 91.1461 50.7243 91.8172 49.7422C91.8172 56.9603 91.9 56.4139 91.2631 63.1151C91.12 64.6204 91.6029 63.8582 90.6751 64.5494ZM62.403 55.8395L70.899 46.4759C72.5599 44.7844 78.8853 38.9095 81.251 38.7093L86.807 56.5998C87.3576 58.7326 86.4209 60.4046 85.3596 63.5004C83.4108 69.185 83.7049 67.2652 86.1308 68.879L91.2462 75.5822C90.9137 77.0324 87.7547 80.5554 86.7976 81.8018L84.3871 84.8677C78.4801 92.7033 69.6155 105.718 64.7415 113.961L58.3656 124.029C57.6877 125.02 56.9918 126.613 56.1204 127.262C56.3043 125.015 67.0411 87.1061 68.5777 82.4407L72.8659 70.251C73.0395 69.888 74.7657 67.9386 73.0797 66.4695C72.6944 66.1336 71.4086 65.8674 70.7925 65.6015C68.9967 64.8258 66.8181 61.2696 65.047 59.2486C64.0771 58.1423 63.1846 57.0258 62.403 55.8395ZM60.975 54.3877C64.6959 48.7387 69.5608 39.8083 73.7713 33.1371C74.2235 32.4207 75.3572 30.6936 75.5395 29.9991C77.0942 30.1307 77.8888 31.5546 78.4976 32.7988C79.1781 34.19 79.7271 35.395 80.3942 36.6768C78.5607 37.9255 76.6728 38.972 75.0402 40.5244C74.1294 41.39 73.4631 41.8169 72.6087 42.6979L70.1815 44.8755C68.0867 46.8449 62.503 53.9728 60.975 54.3877ZM81.5366 35.2253L82.1648 35.7479C81.3657 35.6059 81.7892 35.9138 81.5366 35.2253ZM76.3961 25.6443C73.7983 20.6522 81.559 16.4446 82.9646 16.063C81.9645 17.5811 77.3536 24.9925 76.3961 25.6443ZM87.8192 54.9684L85.2855 46.2211C84.4941 43.807 83.4278 39.8261 82.3935 37.8383C85.2537 35.891 84.5265 34.9319 80.8976 31.5197C80.1111 30.7803 79.6392 30.6366 78.8902 29.7863C76.4964 27.07 77.5863 27.0569 81.0804 21.6963C84.3596 16.6654 85.2151 14.9331 89.8627 11.4627C91.6983 10.0918 93.4051 8.60493 95.2442 7.35274C95.2442 20.3846 92.9324 28.0113 92.1181 38.4346C91.5185 46.1128 92.2557 43.0806 89.7821 49.9955C89.3536 51.1931 88.743 54.2802 87.8192 54.9684ZM90.9606 8.22382L90.6751 8.51417L90.9606 8.22382ZM22.4225 7.93345C22.4225 5.49268 30.0031 8.69294 30.7899 9.0077C33.0413 9.90839 35.0918 10.7364 37.4492 11.5283C46.3426 14.5155 55.5952 16.5869 63.667 21.4559C66.5884 23.2178 69.3702 24.7713 72.0724 26.8463C72.9441 27.5156 73.8282 28.2561 74.6829 28.838C72.7572 31.7613 60.4514 52.4752 59.8329 52.9359C58.8932 52.2962 55.9198 48.5446 55.0553 47.6313C52.1846 44.5993 48.1289 40.885 45.5809 37.8111C45.2945 37.4657 45.2444 37.3968 44.9119 37.0396L39.9268 31.6557C39.4458 31.0709 39.4571 30.9503 38.9181 30.3586C38.4552 29.8505 38.0887 29.5673 37.6258 29.0592L32.7873 23.5262C30.613 20.8902 22.4225 10.5105 22.4225 7.93345ZM93.8163 37.8383L95.0822 27.512C95.931 21.6656 96.2087 16.1855 96.8374 11.8762C97.089 10.1516 96.7768 7.69491 97.1505 6.38761C97.7315 4.354 102.634 2.25048 104.383 1.83646C105.212 5.45622 103.828 9.18619 102.706 12.9063C101.836 15.7893 100.807 18.6164 99.8495 21.3259C99.3657 22.6943 98.8357 23.9487 98.3493 25.3169C97.8518 26.7158 97.4487 28.1382 96.8746 29.6243L94.675 35.8077C94.5407 36.1572 94.4666 36.3996 94.2833 36.8614L93.8163 37.8383ZM90.9606 8.22382C91.1545 7.48599 94.3089 3.05382 95.2442 2.41717V5.3205C94.4413 5.53847 93.8394 6.16744 93.1627 6.68811C92.4209 7.25869 91.8129 7.99241 90.9606 8.22382ZM96.9577 3.57834C96.9577 1.89541 96.8326 0.0943057 95.2442 0.0943057C94.0759 0.0943057 93.1042 1.91816 92.467 2.78732C90.8145 5.04083 87.2508 10.9604 85.4265 12.469C82.0408 15.2687 70.9186 18.7341 74.9685 26.5151C73.4151 26.0934 71.0772 23.9172 69.5985 22.974C65.7844 20.542 61.9093 18.6414 57.7384 16.7407L51.0414 14.2586C43.5503 12.1773 37.7943 9.92348 30.7406 7.316C29.1368 6.72322 25.6341 5.3205 23.5647 5.3205C16.1143 5.3205 25.0538 16.069 26.8665 18.5128C27.3697 19.1911 27.5204 19.3178 28.0135 19.9599C28.4776 20.5642 28.799 21.0841 29.232 21.6245C29.7302 22.2466 30.056 22.4638 30.5834 23.1539C31.1954 23.9548 31.2555 24.0022 31.921 24.6972C32.5743 25.3794 32.6228 25.6248 33.2052 26.2952L49.9521 44.6904C49.9917 44.7342 50.05 44.7965 50.0896 44.8406C51.6588 46.5828 53.5716 48.1429 55.0206 49.9892C56.2102 51.5055 57.9107 53.0603 58.9763 54.678L57.6629 56.5364C55.8335 59.5856 57.0935 61.3604 59.6606 58.5676C60.4417 57.7179 60.2325 57.4023 61.5464 57.291C61.7672 58.1322 66.9964 64.5313 68.0714 65.7547C68.8625 66.6551 70.1882 67.1687 71.256 67.7431L66.7232 82.0069C65.9402 84.4043 65.1144 86.4314 64.2917 88.8255L56.7327 109.594C55.3867 112.976 53.8458 116.567 53.0472 120.073L52.1223 124.069C52.1223 125.181 53.8358 127.414 53.8358 128.133C53.8358 132.42 49.8378 137.167 49.8378 139.457C49.8378 140.122 49.9346 139.794 50.1233 140.618C52.4952 140.618 52.633 138.746 53.2982 136.878L55.8348 131.617C56.6337 135.104 60.6059 146.033 62.1147 151.944C63.1857 156.138 64.6999 160.331 66.1486 164.392C66.3778 165.034 66.9494 166.274 67.0945 166.921C67.4927 168.701 60.8079 201.494 59.4452 206.13C54.4603 223.09 49.0901 240.1 42.6953 256.46C40.1818 262.891 37.8218 269.61 35.314 275.957C34.6639 277.602 34.1193 279.086 33.4749 280.765C32.0364 284.512 28.9847 291.946 28.1341 295.659C23.7828 295.56 8.00768 286.599 1.55548 291.283C-3.23608 294.762 4.33803 305.93 6.87981 310.299L10.9081 317.527C16.7493 328.153 16.1407 325.661 23.2303 312.158L27.6479 302.133C28.1289 300.88 28.4725 299.66 28.9907 298.562C32.5775 298.865 37.0008 302.041 40.6993 302.917C40.1193 304.146 38.1292 312.925 38.1292 314.821C38.1292 316.611 38.6401 319.002 40.6993 319.176C39.071 321.435 36.4408 320.771 38.2276 326.334C40.4148 333.144 42.4373 335.845 47.0258 329.092C48.7628 326.536 49.6768 323.225 50.4458 320.085C50.9168 318.162 51.0309 318.736 53.1011 318.429C62.5262 317.03 72.2358 317.848 81.5525 319.16C93.0271 320.776 94.9476 320.794 106.631 324.729C109.397 325.661 116.02 328.467 118.661 328.467C119.925 328.467 120.177 326.892 118.739 326.074C117.758 325.515 111.227 324.458 108.356 322.975C108.301 322.947 108.22 322.899 108.171 322.873L126.699 324.36C135.628 325.39 130.912 319.604 129.403 315.224C126.719 307.438 125.412 298.508 123.967 290.265C121.446 275.89 117.634 261.926 115.858 247.409C115.194 241.978 114.072 229.712 114.099 223.938C114.108 221.907 113.789 221.124 113.809 219.006C113.855 214.285 112.78 205.118 112.012 200.51L109.368 185.198C109.09 183.77 109.292 184.247 108.666 183.298C107.692 183.38 107.42 183.654 106.898 184.404L106.667 184.749C106.64 183.502 106.266 180.976 106.142 179.768L104.933 169.941L105.82 159.5C106.643 147.136 109.297 135.796 109.231 123.191C109.22 121.132 109.536 120.184 109.525 117.974C109.507 114.419 109.43 110.316 109.808 106.939C109.947 105.705 109.901 104.247 110.245 103.027C110.451 102.296 110.665 102.628 110.665 101.422C110.665 100.921 109.05 98.7416 108.702 97.9026C108.372 97.1091 108.156 96.5479 107.846 95.869C107.481 95.0711 107.301 94.7758 106.895 93.9322C104.274 88.4847 102.328 83.6873 100.421 77.8681C99.9142 76.322 99.5011 75.047 98.9206 73.5865C96.2626 66.8991 94.3288 72.9756 92.3886 74.4211L87.9853 68.4453C85.1636 64.7956 86.4452 67.3526 87.8192 61.3557C89.6324 62.7063 88.126 66.6461 91.5317 67.4527C93.3528 65.8435 93.1382 61.9219 93.4531 59.5346C94.0533 54.9845 93.202 49.4743 93.5383 44.814C93.7025 42.5378 96.3192 35.8491 97.1597 33.6885C98.6806 29.7781 106.667 8.81988 106.667 3.86869C106.667 -3.55178 99.8079 1.63795 96.9577 3.57834Z" fill="#FEFEFE"/>
</svg>

<svg xmlns="http://www.w3.org/2000/svg" width="132" height="333" fill="none" xmlns:v="https://vecta.io/nano"><path fill-rule="evenodd" d="M42.413 331.08c-1.406-.957-3.752-6.973-2.77-8.603 1.147-1.903 6.25-3.064 9.052-3.3-1.178 5.142-2.537 9.354-6.283 11.904zm37.98-13.936l.085.086c-.006-.005-.114-.058-.085-.086zm-15.135-1.452c1.54 0 2.42-.432 3.835-.747 4.255-.946 3.57-.296 9.123 1.51l1.698.596c.043.02.133.055.193.094-2.218 0-5.22-.533-7.217-.792-2.522-.327-4.94-.37-7.632-.37v-.3zm-13.993 1.16c0-2.046.667-4.73.973-6.852.394-2.74-.9-2.68 7.347.136l2.995 1.02c1.516.514 4.712 1.805 6.105 1.923-1.248 1.73-16.04 3.1-17.42 3.774zm-2 0c-3.368.285-4.29.58-8.282.58-3.058 0 .824-12.435.857-13.936 1.26.298 3.225 1.254 4.528 1.783.978.398 3.532 1.6 4.6 1.7-.188.4-1.714 9.036-1.714 9.87zm-47.69-22.356c0-2.863 4.602-2.613 6.568-2.613 3.22 0 16.197 4.375 19.134 5.807l-2.446 6.514c-2.352 5.997-4.617 9.508-7.45 14.78-.598 1.113-1.25 1.89-1.526 3.094L7.87 309c-1.908-3.36-6.296-11.12-6.296-14.504zm39.695 6.388c-1.3-.1-1.74-.508-2.773-.956-1.016-.44-1.896-.706-2.898-1.12-1.774-.73-4.027-1.44-5.753-2.28l9.952-27.625c4.772-13.036 9.02-23.7 13.43-37.157l3.178-9.544c-.032 1.45-.61 3.45-.854 4.94-.277 1.695-.622 2.973-.938 4.853-.536 3.188-1.372 6.61-1.918 9.954l-7.357 39.555-4.068 19.38zm15.135-79.263c0-.742.452-.046.17 0-.004.001-.17.81-.17 0zm40.266-13.065c-1.064-4.643.857-8.16.857-11.613h.285c0 2.37-.122 4.173-.27 6.114-.112 1.48.14 4.312-.874 5.5zm11.423-21.485l2.805 16.6 1.75 17.965c.264 3.254.25 10.656.75 14.043l1.2 13.578c1.756 14.342 5.144 27.197 7.84 41.388 1.388 7.315 2.814 17.524 5.1 24.428.38 1.147.732 2.45 1.225 3.69.44 1.106 1.2 2.375 1.3 3.604-6.507 0-9.627-.704-14.85-.87l-14.33-1.4c-4.646-.573-16.564-3.94-21.902-5.604-1.417-.442-1.994-.8-3.176-.836.618-.858.866-.6 3.447-1.14l4.055-.813c10.616-1.882 23.038-1.356 32.02 4.746 1.48 1.006 1.037.836 2.743.692.722-3.065-.356-1.98-.566-4.65l-.29-21.77c.001-2.772-.078-5.96-.45-8.543-.2-1.395-.215-2.73-.39-3.958l-1.527-11.803c-1.52-10.507-2.993-20.748-3.907-31.45-.114-1.33-.192-2.528-.375-3.974-.733-5.78-.82-14.826-1.553-20.487l-1.46-16.228c-.44-4.192-1.023-5.4.523-7.21zm-4.57 4.645c0-4.453.57-8.03.57-12.484h.286c0 5.813 2.084 9.044-.857 12.484zm-38.838-3.774c0 1.482.004.482-.285.87 0-1.535.002-.433.285-.87zM51.266 304.95l-8.853-3.484c.948-2.01 5.766-28.44 6.118-30.362l5.67-30.82c.378-2.25.9-5.084 1.46-7.516l3.006-15.235c2.154-10.973 4.47-18.322 7.698-29.046l2.32-6.93c0 1.525-.166 2.474-.337 4.012-1.047 9.397-1.61 18.042-2.927 27.8l-4.242 31.108-2.57 14.806-1.22 7.47-3.8 22.86-1.777 11.258c-.174 1.316-.556 2.677-.556 4.08zm13.422-117.006l3.427-18c.73 1.07 1.31 3.305 1.044 4.524-.18.83-.518 1.343-.795 2.117l-3.676 11.36zm35.983-14.807c-.102-.55.36-1.032.18-.184-.004.02.008 1.197-.18.184zm-31.128-10.743h.286v5.517c-1.656-1.234-.286-3.368-.286-5.517zm33.984 6.097c-2.06.047-2.285 1.1-2.285 3.194h-.285c0-11.993 6.282-45.34 6.282-49.357h.286c0 13.83-2.187 22.016-3.12 34.282-.304 3.996-.878 7.776-.878 11.88zm-44.55-59.52c-.025 1.132-.606 2.848-.916 4.005l-1.084 3.834-1.04 3.877c-.233.814-.344 1.17-.553 2.05-.07.296-.133.63-.23.927l-.46.984c-.64-2.786.598-5.933 1.392-8.166l2.892-7.512zm0 0c0-1.482-.004-.482.285-.87 0 1.535-.002.433-.285.87zm48.548.3l-3.51 23.723c-1.254 7.74-2.233 15.803-3.36 23.877l-1.968 18.322c-.252 3.132-.094 10.64-.603 13.033-.602 2.835-6.384 22.664-1.41 22.664 3.112 0 2.393-4.532 2.977-8.587 1.088-7.554-.447-11.98 1.48-20.56.617-2.75 1.54-6.394 1.54-9.468l-1.458 26.118c-.137 1.525-.852 2.153.887 2.625 1.047-.78 1.248-3.1 1.675-4.394l1.086-3.25c.27-.615.334-.677.666-1.065.018.825.232 2.61.367 3.692l2.566 34.264c.285 2.172.637 5.27.78 7.627.93 15.37 5.6 37.505 6.007 51.67l-.013 20.627c-.01 1.834.29 2.593.29 4.06-4.44-2.388-8.752-3.81-14.76-4.736-8.12-1.25-17.986.42-25.796 2.41-2.297.586-1.74.804-5.42-.58L52.98 305.82c0-1.862 1.92-13.222 2.332-16.2 1.37-9.934 3.537-22.236 5.215-32.442l3.788-24.31 1.062-8.212c.82-5.64 1.275-11.036 2.047-16.79l3.275-31.8c.52-1.72.844-.58.844-2.046 0-1.517-.55-1.618-.55-2.894-.005-3.227 1.51-11.767-.306-14.526-1.663.14-1.587 1.093-1.884 2.73-.275 1.515-.687 2.416-.687 3.947h-.57c-.267-1.166-.648-1.845-1.038-3.01l-4.794-15.74c-.623-2.23-1.335-4.13-2.056-6.33-.378-1.152-3.013-8.2-2.733-8.956L77.94 96.313l6.985-9.448 3.714-4.644 3.75-4.607c.93.633 1.71 2.223 2.453 3.312l4.8 7.025c1.38 2.1 6.424 9.108 7.123 10.76.593 1.4.88 3.07.598 4.863-.337 2.15.162 3.602.162 5.687zm-5.997-21.775L93.53 75.873c.654-.764 2.015-2.166 2.285-3.194l5.712 14.807zM90.675 64.55c-.1-1.24-1.713-5.39-1.713-6.097 0-.427 2.185-7.728 2.856-8.7 0 7.218.083 6.672-.554 13.373-.143 1.505.34.743-.588 1.434zm-28.272-8.7l8.496-9.364c1.66-1.692 7.986-7.566 10.352-7.767l5.556 17.89c.55 2.133-.386 3.805-1.447 6.9-1.95 5.685-1.655 3.765.77 5.38l5.115 6.703c-.332 1.45-3.492 4.973-4.45 6.22l-2.4 3.066c-5.907 7.836-14.772 20.85-19.646 29.093l-6.376 10.068c-.678.99-1.374 2.584-2.245 3.233.184-2.247 10.92-40.156 12.457-44.82l4.288-12.2c.174-.363 1.9-2.312.214-3.782-.385-.336-1.67-.602-2.287-.868-1.796-.776-3.974-4.332-5.746-6.353-.97-1.106-1.862-2.223-2.644-3.41zm-1.428-1.452c3.72-5.65 8.586-14.58 12.796-21.25.452-.716 1.586-2.443 1.768-3.138 1.555.132 2.35 1.556 2.958 2.8l1.897 3.878c-1.834 1.25-3.72 2.295-5.354 3.848-.91.866-1.577 1.292-2.43 2.173l-2.427 2.178c-2.095 1.97-7.678 9.097-9.206 9.512zm20.562-19.162l.628.523c-.8-.142-.376.166-.628-.523zm-5.14-9.58c-2.598-4.992 5.163-9.2 6.57-9.58-1 1.518-5.61 8.93-6.568 9.58zM87.82 54.968l-2.534-8.747c-.79-2.414-1.858-6.395-2.892-8.383 2.86-1.947 2.133-2.906-1.496-6.32-.787-.74-1.258-.883-2.007-1.733-2.394-2.716-1.304-2.73 2.2-8.1 3.28-5.03 4.135-6.763 8.782-10.234 1.836-1.37 3.542-2.858 5.382-4.1 0 13.032-2.312 20.66-3.126 31.082-.6 7.678.138 4.646-2.336 11.56-.428 1.198-1.04 4.285-1.963 4.973zm3.14-46.745l-.285.3.285-.3zm-68.538-.3c0-2.44 7.58.76 8.367 1.074 2.25.9 4.302 1.73 6.66 2.52 8.893 2.987 18.146 5.06 26.218 9.928 2.92 1.762 5.703 3.315 8.405 5.4.872.67 1.756 1.4 2.61 1.992-1.926 2.923-14.232 23.637-14.85 24.098-.94-.64-3.913-4.39-4.778-5.305-2.87-3.032-6.926-6.746-9.474-9.82-.286-.345-.337-.414-.67-.772l-4.985-5.384c-.48-.585-.47-.705-1.01-1.297-.463-.508-.83-.79-1.292-1.3l-4.838-5.533C30.613 20.9 22.423 10.51 22.423 7.933zm71.394 29.905l1.266-10.326c.85-5.846 1.126-11.326 1.755-15.636.252-1.725-.06-4.18.313-5.49.58-2.034 5.484-4.137 7.233-4.55.83 3.62-.555 7.35-1.677 11.07-.87 2.883-1.9 5.7-2.856 8.42-.484 1.368-1.014 2.623-1.5 3.99-.498 1.4-.9 2.82-1.475 4.307l-2.2 6.183c-.134.35-.208.592-.392 1.054l-.467.977zM90.96 8.224c.194-.738 3.348-5.17 4.284-5.807V5.32c-.803.218-1.405.847-2.082 1.368-.742.57-1.35 1.304-2.202 1.536zm5.997-4.645c0-1.683-.125-3.484-1.713-3.484-1.168 0-2.14 1.824-2.777 2.693-1.653 2.254-5.216 8.173-7.04 9.682-3.386 2.8-14.508 6.265-10.458 14.046-1.553-.422-3.89-2.598-5.37-3.54-3.814-2.432-7.69-4.333-11.86-6.233L51.04 14.26c-7.49-2.08-13.247-4.335-20.3-6.943-1.604-.593-5.107-1.995-7.176-1.995-7.45 0 1.49 10.75 3.302 13.192.503.678.654.805 1.147 1.447.464.604.785 1.124 1.218 1.665.498.622.824.84 1.35 1.53.612.8.672.848 1.338 1.543.653.682.702.928 1.284 1.598L50.1 44.84c1.57 1.742 3.482 3.302 4.93 5.15 1.2 1.516 2.9 3.07 3.956 4.69l-1.313 1.858c-1.83 3.05-.57 4.824 1.998 2.03.78-.85.572-1.165 1.886-1.277.22.84 5.45 7.24 6.525 8.464.79.9 2.117 1.414 3.185 1.988l-4.533 14.264c-.783 2.397-1.61 4.424-2.43 6.82l-7.56 20.768c-1.346 3.382-2.887 6.973-3.686 10.48l-.925 3.996c0 1.112 1.713 3.345 1.713 4.064 0 4.287-3.998 9.034-3.998 11.324 0 .665.097.337.285 1.16 2.372 0 2.5-1.872 3.175-3.74l2.537-5.26c.8 3.487 4.77 14.416 6.28 20.327 1.07 4.194 2.585 8.387 4.034 12.448.23.642.8 1.882.946 2.53.398 1.78-6.287 34.573-7.65 39.21-4.985 16.96-10.355 33.97-16.75 50.33l-9.22 24.305c-1.438 3.747-4.5 11.18-5.34 14.894-4.35-.1-20.126-9.06-26.58-4.376-4.792 3.48 2.783 14.647 5.324 19.016l4.028 7.228c5.84 10.626 5.233 8.134 12.322-5.37l4.418-10.025c.48-1.253.825-2.473 1.343-3.57 3.587.303 8 3.48 11.71 4.355-.58 1.23-2.57 10.008-2.57 11.904 0 1.8.51 4.18 2.57 4.355-1.628 2.26-4.258 1.595-2.472 7.158 2.187 6.8 4.2 9.51 8.798 2.758 1.737-2.556 2.65-5.867 3.42-9.007.47-1.923.585-1.35 2.655-1.656 9.425-1.4 19.135-.58 28.45.73 11.475 1.616 13.395 1.634 25.08 5.57 2.766.932 9.39 3.738 12.03 3.738 1.264 0 1.516-1.575.078-2.393-.98-.56-7.512-1.616-10.383-3.1-.055-.028-.136-.076-.185-.102l18.528 1.487c8.93 1.03 4.213-4.756 2.704-9.136-2.684-7.786-3.99-16.716-5.436-24.96-2.52-14.375-6.333-28.34-8.11-42.856-.664-5.43-1.786-17.697-1.76-23.47.01-2.03-.3-2.814-.3-4.932.046-4.72-1.03-13.888-1.797-18.496l-2.644-15.312c-.278-1.428-.076-.95-.702-1.9-.974.082-1.246.356-1.768 1.106l-.23.345c-.027-1.247-.4-3.773-.525-4.98l-1.21-9.827.887-10.44c.823-12.364 3.477-23.704 3.41-36.31-.01-2.06.305-3.007.294-5.217-.018-3.555-.095-7.658.283-11.035.14-1.234.093-2.692.437-3.912.206-.73.42-.4.42-1.605 0-.5-1.615-2.68-1.963-3.52-.33-.794-.546-1.355-.856-2.034-.365-.798-.545-1.093-.95-1.937-2.62-5.447-4.567-10.245-6.474-16.064-.507-1.546-.92-2.82-1.5-4.282-2.658-6.687-4.592-.61-6.532.835l-4.403-5.976c-2.822-3.65-1.54-1.093-.166-7.1 1.813 1.35.307 5.3 3.713 6.097 1.82-1.61 1.606-5.53 1.92-7.918.6-4.55-.25-10.06.085-14.72.164-2.276 2.78-8.965 3.62-11.126 1.52-3.9 9.507-24.87 9.507-29.82 0-7.42-6.86-2.23-9.71-.3z" fill="#fefefe"/></svg>
